X:106
T:Testarmazurkan
C:Anton Teljebäck
R:mazurka
Z:Anton Teljebäck 2007-11-27
O:Västerbotten
Q: 1/4=200
M:3/4
L:1/8
K:D
A2 dc d2 | B2 dc de | fe fg ab | a2 f4 | g2 gf e2 | BA Bc dg | fe dF GB | cB A4 |
A2 dc d2 | B2 dc de | fe fg ab | a2 f4 | g2 gf eg | aA Bc dg | fd eA Bc | d2 d4 ||
| B_B =Bc  d2 | c=c ^cd ea | fd ge af | bg a2 A2 | A2 dc d2 | B2 dc de | fd eA Bc | d2 d4 |
| B_B =Bc  d2 | c=c ^cd ea | fd ge af | bg c'a d'b | e'2 e2 fg | ag fe cA | dF G^G A_B | Bc d4 ||
(:musicend:)

(:music:)
